assets/svg/mission/mission.svg

<svg  viewBox="0 0 132 23" fill="none" xmlns="http://www.w3.org/2000/svg">
  <path d="M3.2394 3.35315C28.2429 2.42669 53.4147 3.46344 78.5336 3.23608C88.9629 3.14168 99.3377 3.28538 109.788 3.43934C111.647 3.46673 111.449 4.32049 111.191 5.24382C110.396 8.10116 102.612 8.74305 99.0021 9.13156C91.0101 9.9916 82.5713 9.66404 74.4096 9.8714C62.8574 10.1649 51.2207 10.2602 39.7385 10.8549C34.7668 11.1124 29.7922 11.3862 24.8517 11.748C22.3688 11.9299 18.9611 11.939 16.8886 12.862C16.5644 13.0064 14.9969 13.8273 15.8882 13.9934C19.4086 14.6493 23.357 15.0558 26.9326 15.3404C35.4452 16.018 43.9936 15.9686 52.5048 16.3025C65.3104 16.8048 78.1572 17.2196 90.9624 18.07C99.4577 18.6341 107.989 19.6003 116.49 19.8817C120.771 20.0234 125.03 19.9354 129.31 20.0765" stroke="#FADDA5" stroke-width="5" stroke-linecap="round" />
</svg>

<svg xmlns="http://www.w3.org/2000/svg" fill="none" viewBox="0 0 132 23"><path stroke="#FADDA5" stroke-linecap="round" stroke-width="5" d="M3.24 3.353c25.003-.926 50.175.11 75.294-.117 10.429-.094 20.804.05 31.254.203 1.859.028 1.661.881 1.403 1.805-.795 2.857-8.579 3.5-12.189 3.888-7.992.86-16.43.532-24.592.74-11.553.293-23.19.388-34.671.983-4.972.257-9.947.531-14.887.893-2.483.182-5.89.191-7.963 1.114-.325.144-1.892.965-1 1.131 3.52.656 7.468 1.063 11.044 1.347 8.512.678 17.06.629 25.572.962 12.805.503 25.652.918 38.457 1.768 8.496.564 17.027 1.53 25.528 1.812 4.281.141 8.54.053 12.82.194"/></svg>
